Newaita-dark/apps/scalable/gnome-twitch.svg

<?xml version="1.0" encoding="UTF-8"?>
<svg xmlns="http://www.w3.org/2000/svg" xmlns:xlink="http://www.w3.org/1999/xlink" width="512pt" height="512pt" viewBox="0 0 512 512" version="1.1">
<defs>
<radialGradient id="radial0" gradientUnits="userSpaceOnUse" cx="450.908936" cy="189.579361" fx="450.908936" fy="189.579361" r="21.166656" gradientTransform="matrix(0.00000278673,-1.250119,-2.250215,-0.00000162462,558.897422,1017.525321)">
<stop offset="0" style="stop-color:rgb(0%,0%,0%);stop-opacity:0.313725;"/>
<stop offset="0.222222" style="stop-color:rgb(0%,0%,0%);stop-opacity:0.27451;"/>
<stop offset="1" style="stop-color:rgb(0%,0%,0%);stop-opacity:0;"/>
</radialGradient>
<radialGradient id="radial1" gradientUnits="userSpaceOnUse" cx="450.908936" cy="189.579361" fx="450.908936" fy="189.579361" r="21.166656" gradientTransform="matrix(-0.00000278673,1.250119,2.250215,0.00000162462,-283.704519,-120.439662)">
<stop offset="0" style="stop-color:rgb(0%,0%,0%);stop-opacity:0.313725;"/>
<stop offset="0.222222" style="stop-color:rgb(0%,0%,0%);stop-opacity:0.27451;"/>
<stop offset="1" style="stop-color:rgb(0%,0%,0%);stop-opacity:0;"/>
</radialGradient>
<radialGradient id="radial2" gradientUnits="userSpaceOnUse" cx="450.908936" cy="189.579361" fx="450.908936" fy="189.579361" r="21.166656" gradientTransform="matrix(-0.00000278673,-1.250119,2.250215,-0.00000162462,-283.704519,1017.525321)">
<stop offset="0" style="stop-color:rgb(0%,0%,0%);stop-opacity:0.313725;"/>
<stop offset="0.222222" style="stop-color:rgb(0%,0%,0%);stop-opacity:0.27451;"/>
<stop offset="1" style="stop-color:rgb(0%,0%,0%);stop-opacity:0;"/>
</radialGradient>
<radialGradient id="radial3" gradientUnits="userSpaceOnUse" cx="450.908936" cy="189.579361" fx="450.908936" fy="189.579361" r="21.166656" gradientTransform="matrix(0.00000278673,1.250119,-2.250215,0.00000162462,558.897392,-120.43967)">
<stop offset="0" style="stop-color:rgb(0%,0%,0%);stop-opacity:0.313725;"/>
<stop offset="0.222222" style="stop-color:rgb(0%,0%,0%);stop-opacity:0.27451;"/>
<stop offset="1" style="stop-color:rgb(0%,0%,0%);stop-opacity:0;"/>
</radialGradient>
<linearGradient id="linear0" gradientUnits="userSpaceOnUse" x1="880" y1="1695.118164" x2="880" y2="175.118134" gradientTransform="matrix(0.264609,0,0,0.264609,0,0)">
<stop offset="0" style="stop-color:rgb(49.411765%,34.117647%,76.078431%);stop-opacity:1;"/>
<stop offset="1" style="stop-color:rgb(58.431373%,45.882353%,80.392157%);stop-opacity:1;"/>
</linearGradient>
<linearGradient id="linear1" gradientUnits="userSpaceOnUse" x1="254" y1="85.333336" x2="254" y2="-147.5" >
<stop offset="0" style="stop-color:rgb(87.843137%,87.843137%,87.843137%);stop-opacity:1;"/>
<stop offset="1" style="stop-color:rgb(93.333333%,93.333333%,93.333333%);stop-opacity:1;"/>
</linearGradient>
<linearGradient id="linear2" gradientUnits="userSpaceOnUse" x1="206.279907" y1="220.292587" x2="206.279907" y2="-170.685043" gradientTransform="matrix(0.406033,0,0,0.406033,149.076797,-46.76907)">
<stop offset="0" style="stop-color:rgb(49.411765%,34.117647%,76.078431%);stop-opacity:1;"/>
<stop offset="1" style="stop-color:rgb(58.431373%,45.882353%,80.392157%);stop-opacity:1;"/>
</linearGradient>
</defs>
<g id="surface1">
<path style=" stroke:none;fill-rule:nonzero;fill:url(#radial0);" d="M 137.597656 448.542969 L 179.933594 448.542969 L 179.933594 427.375 L 137.597656 427.375 Z M 137.597656 448.542969 "/>
<path style=" stroke:none;fill-rule:nonzero;fill:url(#radial1);" d="M 137.597656 448.542969 L 95.257812 448.542969 L 95.257812 469.710938 L 137.597656 469.710938 Z M 137.597656 448.542969 "/>
<path style=" stroke:none;fill-rule:nonzero;fill:url(#radial2);" d="M 137.597656 448.542969 L 95.257812 448.542969 L 95.257812 427.375 L 137.597656 427.375 Z M 137.597656 448.542969 "/>
<path style=" stroke:none;fill-rule:nonzero;fill:url(#radial3);" d="M 137.597656 448.542969 L 179.933594 448.542969 L 179.933594 469.710938 L 137.597656 469.710938 Z M 137.597656 448.542969 "/>
<path style=" stroke:none;fill-rule:nonzero;fill:url(#linear0);" d="M 63.507812 46.335938 C 51.777344 46.335938 42.335938 55.441406 42.335938 66.75 L 42.335938 311.703125 C 42.335938 323.011719 51.777344 332.113281 63.507812 332.113281 C 121.71875 332.113281 121.71875 332.113281 121.71875 342.699219 L 122.074219 428.128906 C 122.121094 439.4375 128.996094 448.542969 137.597656 448.542969 L 142.886719 448.542969 C 158.765625 448.542969 169.144531 432.667969 232.855469 342.699219 C 243.441406 332.113281 243.441406 332.113281 444.542969 332.113281 C 456.269531 332.113281 465.710938 323.011719 465.710938 311.703125 L 465.710938 66.75 C 465.710938 55.441406 456.269531 46.335938 444.542969 46.335938 Z M 63.507812 46.335938 "/>
<path style="fill-rule:nonzero;fill:url(#linear1);stroke-width:3;stroke-linecap:round;stroke-linejoin:miter;stroke:rgb(0%,0%,0%);stroke-opacity:1;stroke-miterlimit:4;" d="M 84.667696 -147.498634 L 423.334574 -147.498634 C 429.177766 -147.498634 433.915594 -142.760805 433.915594 -136.917613 L 433.915594 74.749674 C 433.915594 80.596772 429.177766 85.334601 423.334574 85.334601 L 84.667696 85.334601 C 78.820598 85.334601 74.082769 80.596772 74.082769 74.749674 L 74.082769 -136.917613 C 74.082769 -142.760805 78.820598 -147.498634 84.667696 -147.498634 Z M 84.667696 -147.498634 " transform="matrix(1.000095,0,0,1.000095,0,215.020531)"/>
<path style=" stroke:none;fill-rule:nonzero;fill:rgb(90.196079%,90.196079%,90.196079%);fill-opacity:0.937255;" d="M 63.507812 46.335938 C 51.777344 46.335938 42.335938 55.777344 42.335938 67.507812 L 42.335938 70.152344 C 42.335938 58.425781 51.777344 48.960938 63.507812 48.984375 L 444.542969 48.984375 C 456.269531 48.960938 465.710938 58.425781 465.710938 70.152344 L 465.710938 67.507812 C 465.710938 55.777344 456.269531 46.335938 444.542969 46.335938 Z M 63.507812 46.335938 "/>
<path style=" stroke:none;fill-rule:nonzero;fill:rgb(0%,0%,0%);fill-opacity:0.196078;" d="M 42.335938 308.832031 L 42.335938 311.703125 C 42.335938 323.011719 51.777344 332.113281 63.507812 332.113281 C 121.71875 332.113281 121.71875 332.113281 121.71875 342.699219 L 122.074219 428.128906 C 122.121094 439.4375 128.996094 448.542969 137.597656 448.542969 L 142.886719 448.542969 C 158.765625 448.542969 169.144531 432.667969 232.855469 342.699219 C 243.441406 332.113281 243.441406 332.113281 444.542969 332.113281 C 456.269531 332.113281 465.710938 323.011719 465.710938 311.703125 L 465.710938 308.832031 C 465.710938 320.140625 456.269531 329.246094 444.542969 329.246094 C 243.441406 329.246094 243.441406 329.246094 232.855469 339.828125 C 169.144531 429.796875 158.765625 445.671875 142.886719 445.671875 L 137.597656 445.671875 C 128.996094 445.671875 122.121094 436.570312 122.074219 425.261719 L 121.71875 339.828125 C 121.71875 329.246094 121.71875 329.246094 63.507812 329.246094 C 51.777344 329.246094 42.335938 320.140625 42.335938 308.832031 Z M 42.335938 308.832031 "/>
<path style="fill:none;stroke-width:11.338583;stroke-linecap:round;stroke-linejoin:miter;stroke:rgb(0%,0%,0%);stroke-opacity:1;stroke-miterlimit:4;" d="M 240.006621 175.11124 C 195.675222 175.11124 159.994572 209.522325 159.994572 252.259388 L 159.994572 1177.978122 C 159.994572 1220.715185 195.675222 1255.111508 240.006621 1255.111508 C 459.995467 1255.111508 459.995467 1255.111508 459.995467 1295.117532 L 461.338843 1617.970577 C 461.515991 1660.707639 487.497763 1695.118725 520.004503 1695.118725 L 539.992753 1695.118725 C 600.001789 1695.118725 639.225408 1635.124451 879.999672 1295.117532 C 920.005696 1255.111508 920.005696 1255.111508 1680.002058 1255.111508 C 1724.318694 1255.111508 1759.999344 1220.715185 1759.999344 1177.978122 L 1759.999344 252.259388 C 1759.999344 209.522325 1724.318694 175.11124 1680.002058 175.11124 Z M 240.006621 175.11124 " transform="matrix(0.264609,0,0,0.264609,0,0)"/>
<path style="fill-rule:nonzero;fill:url(#linear2);stroke-width:3;stroke-linecap:butt;stroke-linejoin:miter;stroke:rgb(12.941177%,12.941177%,12.941177%);stroke-opacity:1;stroke-miterlimit:4;" d="M 301.416529 -112.669928 C 270.64603 -112.669928 264.877049 -65.908769 282.187896 -65.908769 C 299.494837 -65.908769 332.190934 -112.669928 301.416529 -112.669928 Z M 254.018711 -105.479209 C 253.534382 -105.479209 253.018807 -105.432338 252.468078 -105.385468 C 235.024431 -103.186459 241.160564 -73.669746 250.444834 -73.119018 C 259.416633 -72.587818 269.259443 -105.436244 253.999182 -105.490926 Z M 223.787223 -94.581812 C 222.720919 -94.652118 221.537438 -94.445106 220.225063 -93.910001 C 206.210777 -88.152738 218.09636 -64.393288 225.943267 -65.986886 C 233.063681 -67.435967 234.087021 -93.917813 223.787223 -94.581812 Z M 200.914407 -75.157886 C 199.695774 -75.20085 198.375587 -74.771204 196.969472 -73.728335 C 185.751793 -65.354134 200.750361 -45.121691 207.347387 -48.262016 C 213.124179 -51.003942 209.440937 -74.849321 200.906596 -75.157886 Z M 267.173705 -55.84723 C 242.867432 -56.261253 210.796276 -43.934305 205.324143 -19.135892 C 199.406739 7.670142 229.708533 44.873621 261.314889 44.873621 C 276.868092 44.873621 294.811691 30.656229 298.166839 12.654041 C 300.729094 -1.067305 268.001751 4.43217 269.173514 13.509428 C 270.583536 24.399014 261.283642 29.781312 252.175137 22.762451 C 223.170095 0.420835 300.197895 -10.726538 295.112443 -41.254873 C 293.530563 -50.753966 281.73872 -55.589442 267.161987 -55.84723 Z M 267.173705 -55.84723 " transform="matrix(1.000095,0,0,1.000095,0,215.020531)"/>
</g>
</svg>

<svg xmlns="http://www.w3.org/2000/svg" width="512pt" height="512pt" viewBox="0 0 512 512"><defs><radialGradient id="a" gradientUnits="userSpaceOnUse" cx="450.909" cy="189.579" fx="450.909" fy="189.579" r="21.167" gradientTransform="matrix(0 -1.25012 -2.25021 0 558.897 1017.525)"><stop offset="0" stop-opacity=".314"/><stop offset=".222" stop-opacity=".275"/><stop offset="1" stop-opacity="0"/></radialGradient><radialGradient id="b" gradientUnits="userSpaceOnUse" cx="450.909" cy="189.579" fx="450.909" fy="189.579" r="21.167" gradientTransform="matrix(0 1.25012 2.25021 0 -283.705 -120.44)"><stop offset="0" stop-opacity=".314"/><stop offset=".222" stop-opacity=".275"/><stop offset="1" stop-opacity="0"/></radialGradient><radialGradient id="c" gradientUnits="userSpaceOnUse" cx="450.909" cy="189.579" fx="450.909" fy="189.579" r="21.167" gradientTransform="matrix(0 -1.25012 2.25021 0 -283.705 1017.525)"><stop offset="0" stop-opacity=".314"/><stop offset=".222" stop-opacity=".275"/><stop offset="1" stop-opacity="0"/></radialGradient><radialGradient id="d" gradientUnits="userSpaceOnUse" cx="450.909" cy="189.579" fx="450.909" fy="189.579" r="21.167" gradientTransform="matrix(0 1.25012 -2.25021 0 558.897 -120.44)"><stop offset="0" stop-opacity=".314"/><stop offset=".222" stop-opacity=".275"/><stop offset="1" stop-opacity="0"/></radialGradient><linearGradient id="e" gradientUnits="userSpaceOnUse" x1="880" y1="1695.118" x2="880" y2="175.118" gradientTransform="rotate(.158) scale(.26461)"><stop offset="0" stop-color="#7e57c2"/><stop offset="1" stop-color="#9575cd"/></linearGradient><linearGradient id="f" gradientUnits="userSpaceOnUse" x1="254" y1="85.333" x2="254" y2="-147.5"><stop offset="0" stop-color="#e0e0e0"/><stop offset="1" stop-color="#eee"/></linearGradient><linearGradient id="g" gradientUnits="userSpaceOnUse" x1="206.28" y1="220.293" x2="206.28" y2="-170.685" gradientTransform="matrix(.40603 0 0 .40603 149.077 -46.77)"><stop offset="0" stop-color="#7e57c2"/><stop offset="1" stop-color="#9575cd"/></linearGradient></defs><path d="M137.598 448.543h42.336v-21.168h-42.336zm0 0" fill="url(#a)"/><path d="M137.598 448.543h-42.34v21.168h42.34zm0 0" fill="url(#b)"/><path d="M137.598 448.543h-42.34v-21.168h42.34zm0 0" fill="url(#c)"/><path d="M137.598 448.543h42.336v21.168h-42.336zm0 0" fill="url(#d)"/><path d="M63.508 46.336c-11.73 0-21.172 9.105-21.172 20.414v244.953c0 11.309 9.441 20.41 21.172 20.41 58.21 0 58.21 0 58.21 10.586l.356 85.43c.047 11.308 6.922 20.414 15.524 20.414h5.289c15.879 0 26.258-15.875 89.968-105.844 10.586-10.586 10.586-10.586 211.688-10.586 11.727 0 21.168-9.101 21.168-20.41V66.75c0-11.309-9.441-20.414-21.168-20.414zm0 0" fill="url(#e)"/><path d="M84.668-147.499h338.667c5.843 0 10.58 4.738 10.58 10.581V74.75c0 5.847-4.737 10.585-10.58 10.585H84.668c-5.847 0-10.585-4.738-10.585-10.585v-211.668c0-5.843 4.738-10.58 10.585-10.58zm0 0" transform="matrix(1.0001 0 0 1.0001 0 215.02)" fill="url(#f)" stroke-width="3" stroke-linecap="round" stroke="#000"/><path d="M63.508 46.336a21.124 21.124 0 0 0-21.172 21.172v2.644c0-11.726 9.441-21.191 21.172-21.168h381.035c11.727-.023 21.168 9.442 21.168 21.168v-2.644a21.123 21.123 0 0 0-21.168-21.172zm0 0" fill="#e6e6e6" fill-opacity=".937"/><path d="M42.336 308.832v2.871c0 11.309 9.441 20.41 21.172 20.41 58.21 0 58.21 0 58.21 10.586l.356 85.43c.047 11.308 6.922 20.414 15.524 20.414h5.289c15.879 0 26.258-15.875 89.968-105.844 10.586-10.586 10.586-10.586 211.688-10.586 11.727 0 21.168-9.101 21.168-20.41v-2.871c0 11.309-9.441 20.414-21.168 20.414-201.102 0-201.102 0-211.688 10.582-63.71 89.969-74.09 105.844-89.968 105.844h-5.29c-8.6 0-15.476-9.102-15.523-20.41l-.355-85.434c0-10.582 0-10.582-58.211-10.582-11.73 0-21.172-9.105-21.172-20.414zm0 0" fill-opacity=".196"/><path d="M63.508 46.336c-11.73 0-21.172 9.105-21.172 20.414v244.954c0 11.308 9.441 20.41 21.172 20.41 58.21 0 58.21 0 58.21 10.586l.356 85.43c.047 11.308 6.922 20.414 15.524 20.414h5.289c15.879 0 26.258-15.875 89.969-105.844 10.586-10.586 10.586-10.586 211.688-10.586 11.726 0 21.168-9.102 21.168-20.41V66.75c0-11.309-9.442-20.414-21.168-20.414zm0 0" fill="none" stroke-width="3.0004127900000004" stroke-linecap="round" stroke="#000"/><path d="M301.417-112.67c-30.771 0-36.54 46.761-19.23 46.761 17.308 0 50.004-46.76 19.23-46.76zm-47.398 7.19c-.485 0-1 .048-1.55.095-17.445 2.199-11.308 31.715-2.024 32.266 8.972.531 18.814-32.317 3.554-32.372zm-30.232 10.898c-1.066-.07-2.25.137-3.562.672-14.014 5.757-2.129 29.517 5.718 27.923 7.12-1.449 8.144-27.93-2.156-28.595zm-22.873 19.424c-1.218-.043-2.538.387-3.945 1.43-11.217 8.374 3.781 28.606 10.378 25.466 5.777-2.742 2.094-26.587-6.44-26.896zm66.26 19.31c-24.307-.413-56.378 11.914-61.85 36.712-5.917 26.806 24.385 64.01 55.99 64.01 15.554 0 33.498-14.218 36.853-32.22 2.562-13.721-30.165-8.222-28.993.855 1.41 10.89-7.89 16.272-16.999 9.253C223.17.421 300.198-10.727 295.112-41.255c-1.581-9.499-13.373-14.334-27.95-14.592zm0 0" transform="matrix(1.0001 0 0 1.0001 0 215.02)" fill="url(#g)" stroke-width="3" stroke="#212121"/></svg>
